X:1
T:Title
%%score 1 2
L:1/8
Q:1/4=150
M:4/4
K:G
V:1 treble nm="Voice Oohs, Staff"
V:2 bass nm="Nylon Gtr., Staff-1"
V:1
 D2 E2 G4- | G2 G2 E2 D2 | G2 G2 A4- | A2 B2 A2 G2 | G2 A2 B4- | B2 B2 A2 G2 | G2 E2 D3 G | %7
w: By~usona~tradicia~melodio * *|||||||
 G2 A2 G4 | D2 E2 G4- | G2 G2 E2 D2 | G2 G2 A4- | A2 B2 A2 G2 | G2 A2 B4- | B2 B2 A2 G2 | %14
w: |||||||
 G2 E2 D2 G2 | G2 A2 G4 | D2 E2 G4- | G2 G2 E2 D2 | G2 G2 A4- | A2 B2 A2 G2 | G2 A2 B4- | %21
w: |||||||
 B2 B2 A2 G2 | G2 E2 D3 G | G2 A2 G4 |] %24
w: |||
V:2
 z4 [G,B,D]4- | [G,B,D]8- | [G,B,D]4 [F,A,CD]4- | [F,A,CD]4[K:treble] [G,B,D]4- | [G,B,D]8 | %5
 [G,B,D=F]4 [G,CE]4- | [G,CE]4[K:bass] [G,B,D]4 | [G,A,CE]2 [F,A,CD]2 [G,B,D]4- | %8
 [G,B,D]4 [G,B,D]4- | [G,B,D]8- | [G,B,D]4 [F,A,CD]4- | [F,A,CD]4[K:treble] [G,B,D]4- | [G,B,D]8 | %13
 [G,B,D=F]4 [G,CE]4- | [G,CE]4[K:bass] [G,B,D]4 | [G,A,CE]2 [F,A,CD]2 [G,B,D]4- | %16
 [G,B,D]4 [G,B,D]4- | [G,B,D]8- | [G,B,D]4 [F,A,CD]4- | [F,A,CD]4[K:treble] [G,B,D]4- | [G,B,D]8 | %21
 [G,B,D=F]4 [G,CE]4- | [G,CE]4[K:bass] [G,B,D]4 | [G,A,CE]2 [F,A,CD]2 .[G,B,D]2 z2 |] %24

